X:043
T:Charlie Gore's Birthday
C:John Turner
B:John Turners Melodies (W Virginia 1984)
Z:Nigel Gatherer
N:
M:6/8
L:1/8
K:D
f/g/|a>gf g>fe|d2f A2d|B>AG A>FD|E2C A,2G|
A>FA d>cd|B>dg b2^g|a>=gf gfe|dAF D2:|
A|d>Ad eA=c|B2A G2B|e>^de f>ed|c>AE A,2G|
FAF D>EF|G>Bd g2 f/e/|dcA GEz|D3 D2:|
<end>
<start>
